X: 21691
T: Kilteery
R: reel
M: 4/4
K: Fmajor
F2EF DFCF|F,FAc dcAF|G^FGD =FDCF|DCDE FCDE|
F2EF DFCF|F,FAc dcAF|G^FGD =FDCF|1 DCDE FCDE:|2 DCDE (3FGF F,F||
Acc2 Acfc|acfc AGGc|Accf dcAG|FCDE (3FGF F,F|
Acc2 Acfc|acfc AGGc|Accf dcAG|FCDE (3FGF F,F:|

